SVG_Azure_Grouped/Data/Azure Synapse Analytics Pipeline.svg

<?xml version="1.0" encoding="UTF-8" standalone="no"?>
<!-- Generated by Microsoft Visio, SVG Export Azure Synapse Analytics Pipeline.svg Page-1 -->

<svg
   xmlns:dc="http://purl.org/dc/elements/1.1/"
   xmlns:cc="http://creativecommons.org/ns#"
   xmlns:rdf="http://www.w3.org/1999/02/22-rdf-syntax-ns#"
   xmlns:svg="http://www.w3.org/2000/svg"
   xmlns="http://www.w3.org/2000/svg"
   xmlns:sodipodi="http://sodipodi.sourceforge.net/DTD/sodipodi-0.dtd"
   xmlns:inkscape="http://www.inkscape.org/namespaces/inkscape"
   width="0.78737503in"
   height="0.74800575in"
   viewBox="0 0 56.691 53.856207"
   xml:space="preserve"
   class="st6"
   version="1.1"
   id="svg94"
   sodipodi:docname="Azure Synapse Analytics Pipeline.svg"
   style="font-size:12px;overflow:visible;color-interpolation-filters:sRGB;fill:none;fill-rule:evenodd;stroke-linecap:square;stroke-miterlimit:3"
   inkscape:version="0.92.5 (2060ec1f9f, 2020-04-08)"><metadata
   id="metadata98"><rdf:RDF><cc:Work
       rdf:about=""><dc:format>image/svg+xml</dc:format><dc:type
         rdf:resource="http://purl.org/dc/dcmitype/StillImage" /></cc:Work></rdf:RDF></metadata><sodipodi:namedview
   pagecolor="#ffffff"
   bordercolor="#666666"
   borderopacity="1"
   objecttolerance="10"
   gridtolerance="10"
   guidetolerance="10"
   inkscape:pageopacity="0"
   inkscape:pageshadow="2"
   inkscape:window-width="640"
   inkscape:window-height="480"
   id="namedview96"
   showgrid="false"
   inkscape:zoom="1.8979166"
   inkscape:cx="37.795281"
   inkscape:cy="16.819201"
   inkscape:window-x="0"
   inkscape:window-y="0"
   inkscape:window-maximized="0"
   inkscape:current-layer="svg94" />
	<style
   type="text/css"
   id="style2">
	<![CDATA[
		.st1 {fill:#0078d4;stroke:none;stroke-linecap:butt;stroke-width:0.749999}
		.st2 {fill:url(#grad0-12);stroke:none;stroke-linecap:butt;stroke-width:0.749999}
		.st3 {fill:#50e6ff;stroke:none;stroke-linecap:butt;stroke-width:0.749999}
		.st4 {fill:url(#grad0-20);stroke:none;stroke-linecap:butt;stroke-width:0.749999}
		.st5 {fill:#000000;stroke:none;stroke-linecap:butt;stroke-width:0.749999}
		.st6 {fill:none;fill-rule:evenodd;font-size:12px;overflow:visible;stroke-linecap:square;stroke-miterlimit:3}
	]]>
	</style>

	<defs
   id="Patterns_And_Gradients">
		<linearGradient
   id="grad0-12"
   x1="0"
   y1="134.49929"
   x2="24.438924"
   y2="134.49929"
   gradientTransform="scale(1.7042485,0.58676888)"
   gradientUnits="userSpaceOnUse">
			<stop
   offset="0.2"
   stop-color="#005ba1"
   stop-opacity="1"
   id="stop4" />
			<stop
   offset="1"
   stop-color="#0078d4"
   stop-opacity="1"
   id="stop6" />
		</linearGradient>
		<linearGradient
   id="grad0-20"
   x1="-1.2474463"
   y1="86.009611"
   x2="21.564836"
   y2="86.009611"
   gradientTransform="scale(1.1490933,0.87025138)"
   gradientUnits="userSpaceOnUse">
			<stop
   offset="0"
   stop-color="#198ab3"
   stop-opacity="1"
   id="stop9" />
			<stop
   offset="0.17"
   stop-color="#32bedd"
   stop-opacity="1"
   id="stop11" />
			<stop
   offset="0.5"
   stop-color="#50e6ff"
   stop-opacity="1"
   id="stop13" />
			<stop
   offset="0.5"
   stop-color="#4fe4fd"
   stop-opacity="1"
   id="stop15" />
			<stop
   offset="0.5"
   stop-color="#4bddf8"
   stop-opacity="1"
   id="stop17" />
			<stop
   offset="0.5"
   stop-color="#44d2ee"
   stop-opacity="1"
   id="stop19" />
			<stop
   offset="0.5"
   stop-color="#3ac1e0"
   stop-opacity="1"
   id="stop21" />
			<stop
   offset="0.5"
   stop-color="#2dabce"
   stop-opacity="1"
   id="stop23" />
			<stop
   offset="0.5"
   stop-color="#1d90b8"
   stop-opacity="1"
   id="stop25" />
			<stop
   offset="0.5"
   stop-color="#198ab3"
   stop-opacity="1"
   id="stop27" />
			<stop
   offset="0.66"
   stop-color="#32bedd"
   stop-opacity="1"
   id="stop29" />
			<stop
   offset="0.975"
   stop-color="#50e6ff"
   stop-opacity="1"
   id="stop31" />
		</linearGradient>
	</defs>
	<g
   id="g92"
   transform="translate(-5.66929,-5.3880667)">
		<title
   id="title35">Page-1</title>
		<g
   id="group19592-1"
   transform="translate(5.66929,-34.0157)">
			<title
   id="title37">Azure Synapse Analytics Pipeline.19592</title>
			<g
   id="group19593-2">
				<title
   id="title39">Page-1</title>
				<g
   id="group19594-3">
					<title
   id="title41">Sheet.19594</title>
					<g
   id="group19595-4"
   transform="translate(0,-5.87641)">
						<title
   id="title43">Sheet.19595</title>
						<g
   id="group19596-5">
							<title
   id="title45">Sheet.19596</title>
							<g
   id="shape19597-6">
								<title
   id="title47">Sheet.19597</title>
								<path
   d="M 20.82,45.28 0,57.25 V 81.16 L 20.82,93.26 41.65,81.29 V 57.31 Z M 37.79,78.78 20.82,88.65 3.84,78.89 V 59.63 l 16.98,-9.87 16.97,9.89 z"
   class="st1"
   id="path49"
   inkscape:connector-curvature="0"
   style="fill:#0078d4;stroke:none;stroke-width:0.74999899;stroke-linecap:butt" />
							</g>
						</g>
						<g
   id="group19598-8"
   transform="translate(0,-33.6389)">
							<title
   id="title53">Sheet.19598</title>
							<g
   id="shape19599-9">
								<title
   id="title55">Sheet.19599</title>
								<path
   d="M 20.82,78.92 0,90.89 l 3.84,2.37 16.98,-9.86 16.97,9.86 3.86,-2.37 z"
   class="st2"
   id="path57"
   inkscape:connector-curvature="0"
   style="fill:url(#grad0-12);stroke:none;stroke-width:0.74999899;stroke-linecap:butt" />
							</g>
						</g>
						<g
   id="group19600-13"
   transform="translate(6.53258,-5.99476)">
							<title
   id="title61">Sheet.19600</title>
							<g
   id="shape19601-14">
								<title
   id="title63">Sheet.19601</title>
								<path
   d="M 24.21,79.2 A 1.93617,1.94583 -180 0 0 23.35,78.44 15.476,15.5533 -180 0 0 11.48,69.51 L 28.65,59.54 24.66,57.24 5.09,68.6 a 1.98921,1.99914 -180 0 0 1,3.73 1.81416,1.82322 -180 0 0 0.24,-0.06 l 0.33,1.4 A 11.4552,11.5124 0 0 1 19.5,79.63 L 0,90.95 3.98,93.26 23.49,81.93 a 1.93352,1.94317 -180 0 0 0.63,-0.63 l 0.2,-0.04 C 24.3,81.18 24.28,81.1 24.25,81.03 A 1.94943,1.95916 -180 0 0 24.21,79.2 Z"
   class="st3"
   id="path65"
   inkscape:connector-curvature="0"
   style="fill:#50e6ff;stroke:none;stroke-width:0.74999899;stroke-linecap:butt" />
							</g>
						</g>
						<g
   id="group19602-16"
   transform="translate(9.15442,-15.5387)">
							<title
   id="title69">Sheet.19602</title>
							<g
   id="shape19603-17">
								<title
   id="title71">Sheet.19603</title>
								<path
   d="m 19.86,84.84 a 4.90672,4.93121 -180 1 0 4.92,4.94 4.90672,4.93121 -180 0 0 -4.92,-4.94 z M 3.46,74.85 a 4.90672,4.93121 -180 1 0 4.92,4.94 4.90672,4.93121 -180 0 0 -4.92,-4.94 z"
   class="st4"
   id="path73"
   inkscape:connector-curvature="0"
   style="fill:url(#grad0-20);stroke:none;stroke-width:0.74999899;stroke-linecap:butt" />
							</g>
						</g>
					</g>
					<g
   id="group19604-21"
   transform="translate(31.581)">
						<title
   id="title78">Sheet.19604</title>
						<g
   id="group19605-22">
							<title
   id="title80">Sheet.19605</title>
							<g
   id="shape19606-23">
								<title
   id="title82">Sheet.19606</title>
								<path
   d="m 25.11,85.38 c 0,0.42 -0.01,0.86 -0.04,1.32 -0.04,0.46 -0.09,0.93 -0.18,1.39 -0.08,0.46 -0.18,0.92 -0.3,1.36 -0.12,0.45 -0.28,0.88 -0.46,1.26 -0.13,0.3 -0.3,0.59 -0.48,0.89 -0.18,0.32 -0.39,0.58 -0.64,0.83 -0.26,0.25 -0.53,0.45 -0.82,0.59 -0.28,0.15 -0.61,0.23 -1,0.24 h -4.31 v -0.03 c -0.15,0.02 -0.28,0.03 -0.4,0.03 -0.26,0 -0.5,-0.04 -0.74,-0.12 -0.22,-0.08 -0.43,-0.2 -0.63,-0.36 -0.2,-0.16 -0.38,-0.33 -0.57,-0.51 -0.18,-0.17 -0.32,-0.38 -0.45,-0.59 h -3.04 c -0.14,0.21 -0.29,0.42 -0.45,0.61 -0.17,0.19 -0.36,0.35 -0.57,0.49 -0.21,0.14 -0.43,0.26 -0.65,0.35 -0.22,0.09 -0.47,0.13 -0.75,0.13 H 3.92 C 3.55,93.26 3.22,93.18 2.93,93.04 2.64,92.89 2.36,92.69 2.11,92.43 1.86,92.17 1.64,91.91 1.46,91.6 1.28,91.31 1.13,91.01 0.98,90.71 0.8,90.32 0.65,89.89 0.52,89.45 0.4,89.01 0.31,88.56 0.23,88.1 0.16,87.64 0.1,87.17 0.07,86.7 0.02,86.24 0,85.79 0,85.38 0,84.94 0.01,84.5 0.04,84.04 0.08,83.59 0.13,83.12 0.22,82.66 0.3,82.2 0.4,81.75 0.52,81.29 0.65,80.84 0.8,80.42 0.98,80.04 c 0.13,-0.31 0.29,-0.6 0.48,-0.9 0.19,-0.31 0.4,-0.58 0.65,-0.83 0.24,-0.24 0.52,-0.45 0.81,-0.59 0.29,-0.15 0.62,-0.23 1,-0.24 h 4.71 c 0.26,0 0.51,0.05 0.74,0.13 0.23,0.08 0.45,0.2 0.66,0.34 0.21,0.15 0.4,0.32 0.55,0.51 0.16,0.19 0.32,0.39 0.47,0.6 h 3.04 c 0.13,-0.2 0.28,-0.4 0.45,-0.59 0.18,-0.19 0.36,-0.36 0.56,-0.5 0.2,-0.15 0.41,-0.26 0.64,-0.35 0.25,-0.08 0.49,-0.13 0.74,-0.14 h 4.71 c 0.37,0 0.7,0.08 0.99,0.23 0.3,0.14 0.57,0.34 0.83,0.6 0.25,0.26 0.46,0.53 0.63,0.83 0.18,0.29 0.34,0.59 0.49,0.9 0.18,0.39 0.34,0.81 0.46,1.25 0.12,0.45 0.22,0.9 0.29,1.36 0.08,0.45 0.13,0.92 0.18,1.39 0.03,0.46 0.05,0.91 0.05,1.34 z m -21.19,6.3 c 0.18,0 0.34,-0.05 0.49,-0.17 0.16,-0.12 0.3,-0.25 0.44,-0.43 0.13,-0.17 0.24,-0.35 0.34,-0.53 0.09,-0.18 0.18,-0.35 0.25,-0.48 0.15,-0.35 0.28,-0.72 0.39,-1.1 0.1,-0.39 0.19,-0.78 0.25,-1.2 C 6.15,87.36 6.19,86.96 6.23,86.54 6.26,86.13 6.28,85.75 6.28,85.38 6.28,85.01 6.26,84.62 6.24,84.2 6.22,83.79 6.17,83.38 6.09,82.98 6.02,82.58 5.93,82.18 5.83,81.78 5.72,81.39 5.59,81.02 5.44,80.67 5.37,80.54 5.3,80.38 5.2,80.2 5.1,80.03 4.98,79.85 4.85,79.68 4.7,79.51 4.56,79.36 4.41,79.24 4.27,79.13 4.1,79.07 3.92,79.06 c -0.17,0 -0.33,0.06 -0.49,0.17 -0.15,0.12 -0.3,0.26 -0.42,0.44 -0.14,0.17 -0.25,0.34 -0.35,0.52 -0.1,0.18 -0.18,0.35 -0.24,0.48 -0.16,0.35 -0.29,0.72 -0.39,1.1 -0.11,0.39 -0.2,0.79 -0.26,1.2 -0.07,0.41 -0.12,0.82 -0.15,1.23 -0.04,0.42 -0.05,0.81 -0.05,1.18 0,0.37 0.01,0.75 0.03,1.16 0.03,0.42 0.08,0.82 0.15,1.22 0.08,0.41 0.17,0.81 0.28,1.2 0.1,0.39 0.23,0.76 0.39,1.11 0.05,0.13 0.13,0.29 0.23,0.47 0.1,0.18 0.21,0.36 0.36,0.53 0.13,0.16 0.28,0.31 0.42,0.43 0.15,0.11 0.31,0.17 0.49,0.18 z m 7.07,-6.3 c 0,-0.37 -0.02,-0.76 -0.04,-1.18 -0.02,-0.41 -0.08,-0.82 -0.14,-1.22 -0.08,-0.4 -0.17,-0.8 -0.27,-1.2 -0.11,-0.39 -0.25,-0.76 -0.4,-1.11 C 10.08,80.54 10,80.38 9.9,80.2 9.82,80.03 9.69,79.85 9.55,79.68 9.41,79.51 9.27,79.36 9.12,79.24 8.98,79.13 8.81,79.07 8.63,79.06 H 6.34 c 0.28,0.44 0.51,0.91 0.71,1.44 0.2,0.51 0.35,1.05 0.47,1.6 0.11,0.55 0.19,1.11 0.25,1.67 0.04,0.57 0.07,1.1 0.07,1.61 0,0.5 -0.02,1.04 -0.06,1.6 -0.06,0.56 -0.14,1.11 -0.26,1.66 -0.12,0.54 -0.28,1.08 -0.47,1.61 -0.19,0.52 -0.42,1.01 -0.71,1.43 h 2.29 c 0.17,0 0.34,-0.05 0.49,-0.17 0.16,-0.12 0.31,-0.25 0.43,-0.43 0.13,-0.17 0.24,-0.35 0.34,-0.53 0.1,-0.18 0.18,-0.35 0.25,-0.48 0.15,-0.35 0.29,-0.72 0.4,-1.1 0.1,-0.39 0.19,-0.78 0.26,-1.2 0.06,-0.41 0.11,-0.81 0.14,-1.23 0.03,-0.41 0.05,-0.79 0.05,-1.16 z m 5.49,6.3 c 0.18,0 0.33,-0.05 0.49,-0.17 0.15,-0.12 0.3,-0.25 0.43,-0.43 0.14,-0.17 0.25,-0.35 0.35,-0.53 0.1,-0.18 0.18,-0.35 0.24,-0.48 0.16,-0.35 0.28,-0.72 0.39,-1.1 0.11,-0.39 0.19,-0.78 0.26,-1.2 0.07,-0.41 0.11,-0.81 0.14,-1.23 0.04,-0.41 0.06,-0.79 0.06,-1.16 0,-0.37 -0.01,-0.76 -0.05,-1.18 -0.02,-0.41 -0.06,-0.82 -0.14,-1.22 -0.07,-0.4 -0.16,-0.8 -0.27,-1.2 -0.11,-0.39 -0.23,-0.76 -0.39,-1.11 -0.05,-0.13 -0.13,-0.29 -0.23,-0.47 -0.1,-0.17 -0.22,-0.35 -0.36,-0.52 -0.14,-0.17 -0.28,-0.32 -0.43,-0.44 -0.15,-0.11 -0.3,-0.17 -0.49,-0.18 -0.16,0 -0.31,0.06 -0.46,0.17 -0.16,0.12 -0.29,0.26 -0.42,0.43 -0.14,0.15 -0.25,0.33 -0.35,0.52 -0.1,0.19 -0.18,0.35 -0.25,0.46 h -3.19 c 0.26,0.75 0.45,1.52 0.57,2.33 0.11,0.81 0.16,1.6 0.18,2.41 0,0.79 -0.06,1.59 -0.17,2.39 -0.12,0.81 -0.31,1.58 -0.58,2.33 H 15 c 0.06,0.13 0.14,0.28 0.24,0.46 0.1,0.18 0.21,0.35 0.35,0.52 0.13,0.16 0.26,0.31 0.41,0.43 0.15,0.13 0.31,0.18 0.48,0.17 z m 7.06,-6.3 c 0,-0.37 -0.01,-0.76 -0.03,-1.18 -0.02,-0.41 -0.08,-0.82 -0.15,-1.22 -0.08,-0.4 -0.16,-0.8 -0.26,-1.2 -0.12,-0.39 -0.25,-0.76 -0.41,-1.11 -0.05,-0.13 -0.13,-0.29 -0.22,-0.47 -0.1,-0.17 -0.22,-0.35 -0.36,-0.52 -0.14,-0.17 -0.28,-0.32 -0.43,-0.44 -0.14,-0.11 -0.31,-0.17 -0.49,-0.18 H 18.9 c 0.27,0.44 0.51,0.91 0.71,1.44 0.2,0.51 0.35,1.05 0.47,1.6 0.11,0.55 0.2,1.11 0.24,1.67 0.05,0.57 0.08,1.1 0.09,1.61 0,0.5 -0.03,1.04 -0.08,1.6 -0.04,0.56 -0.13,1.11 -0.25,1.66 -0.13,0.54 -0.28,1.08 -0.47,1.61 -0.19,0.52 -0.43,1.01 -0.71,1.43 h 2.29 c 0.17,0 0.33,-0.05 0.49,-0.17 0.16,-0.12 0.3,-0.25 0.43,-0.43 0.13,-0.17 0.25,-0.35 0.34,-0.53 0.1,-0.18 0.19,-0.35 0.24,-0.48 0.16,-0.35 0.29,-0.72 0.41,-1.1 0.1,-0.39 0.18,-0.78 0.25,-1.2 0.07,-0.41 0.11,-0.81 0.15,-1.23 0.03,-0.41 0.04,-0.79 0.04,-1.16 z"
   class="st5"
   id="path84"
   inkscape:connector-curvature="0"
   style="fill:#000000;stroke:none;stroke-width:0.74999899;stroke-linecap:butt" />
							</g>
						</g>
					</g>
				</g>
			</g>
		</g>
	</g>
</svg>

<?xml version="1.0" encoding="UTF-8" standalone="no"?>
<!DOCTYPE svg PUBLIC "-//W3C//DTD SVG 1.1//EN" "http://www.w3.org/Graphics/SVG/1.1/DTD/svg11.dtd">
<!-- Generated by Microsoft Visio, SVG Export Azure Synapse Analytics Pipeline.svg Page-1 -->
<svg xmlns="http://www.w3.org/2000/svg" xmlns:xlink="http://www.w3.org/1999/xlink" xmlns:ev="http://www.w3.org/2001/xml-events"
		width="0.944882in" height="1.29528in" viewBox="0 0 68.0315 93.2598" xml:space="preserve" color-interpolation-filters="sRGB"
		class="st6">
	<style type="text/css">
	<![CDATA[
		.st1 {fill:#0078d4;stroke:none;stroke-linecap:butt;stroke-width:0.749999}
		.st2 {fill:url(#grad0-12);stroke:none;stroke-linecap:butt;stroke-width:0.749999}
		.st3 {fill:#50e6ff;stroke:none;stroke-linecap:butt;stroke-width:0.749999}
		.st4 {fill:url(#grad0-20);stroke:none;stroke-linecap:butt;stroke-width:0.749999}
		.st5 {fill:#000000;stroke:none;stroke-linecap:butt;stroke-width:0.749999}
		.st6 {fill:none;fill-rule:evenodd;font-size:12px;overflow:visible;stroke-linecap:square;stroke-miterlimit:3}
	]]>
	</style>

	<defs id="Patterns_And_Gradients">
		<linearGradient id="grad0-12" x1="0" y1="0" x2="1" y2="0" gradientTransform="rotate(-90 0.5 0.5)">
			<stop offset="0.2" stop-color="#005ba1" stop-opacity="1"/>
			<stop offset="1" stop-color="#0078d4" stop-opacity="1"/>
		</linearGradient>
		<linearGradient id="grad0-20" x1="0" y1="0" x2="1" y2="0" gradientTransform="rotate(-90 0.5 0.5)">
			<stop offset="0" stop-color="#198ab3" stop-opacity="1"/>
			<stop offset="0.17" stop-color="#32bedd" stop-opacity="1"/>
			<stop offset="0.5" stop-color="#50e6ff" stop-opacity="1"/>
			<stop offset="0.5" stop-color="#4fe4fd" stop-opacity="1"/>
			<stop offset="0.5" stop-color="#4bddf8" stop-opacity="1"/>
			<stop offset="0.5" stop-color="#44d2ee" stop-opacity="1"/>
			<stop offset="0.5" stop-color="#3ac1e0" stop-opacity="1"/>
			<stop offset="0.5" stop-color="#2dabce" stop-opacity="1"/>
			<stop offset="0.5" stop-color="#1d90b8" stop-opacity="1"/>
			<stop offset="0.5" stop-color="#198ab3" stop-opacity="1"/>
			<stop offset="0.66" stop-color="#32bedd" stop-opacity="1"/>
			<stop offset="0.975" stop-color="#50e6ff" stop-opacity="1"/>
		</linearGradient>
	</defs>
	<g>
		<title>Page-1</title>
		<g id="group19143-1" transform="translate(5.66929,-34.0157)">
			<title>Azure Synapse Analytics Pipeline.19143</title>
			<g id="group19144-2">
				<title>Page-1</title>
				<g id="group19145-3">
					<title>Sheet.19145</title>
					<g id="group19146-4" transform="translate(0,-5.87641)">
						<title>Sheet.19146</title>
						<g id="group19147-5">
							<title>Sheet.19147</title>
							<g id="shape19148-6">
								<title>Sheet.19148</title>
								<path d="M20.82 45.28 L0 57.25 L0 81.16 L20.82 93.26 L41.65 81.29 L41.65 57.31 L20.82 45.28 ZM37.79
											 78.78 L20.82 88.65 L3.84 78.89 L3.84 59.63 L20.82 49.76 L37.79 59.65 L37.79 78.78 Z"
										class="st1"/>
							</g>
						</g>
						<g id="group19149-8" transform="translate(0,-33.6389)">
							<title>Sheet.19149</title>
							<g id="shape19150-9">
								<title>Sheet.19150</title>
								<path d="M20.82 78.92 L0 90.89 L3.84 93.26 L20.82 83.4 L37.79 93.26 L41.65 90.89 L20.82 78.92 Z"
										class="st2"/>
							</g>
						</g>
						<g id="group19151-13" transform="translate(6.53258,-5.99476)">
							<title>Sheet.19151</title>
							<g id="shape19152-14">
								<title>Sheet.19152</title>
								<path d="M24.21 79.2 A1.93617 1.94583 -180 0 0 23.35 78.44 A15.476 15.5533 -180 0 0 11.48 69.51 L28.65
											 59.54 L24.66 57.24 L5.09 68.6 A1.98921 1.99914 -180 0 0 6.09 72.33 A1.81416 1.82322
											 -180 0 0 6.33 72.27 L6.66 73.67 A11.4552 11.5124 0 0 1 19.5 79.63 L0 90.95 L3.98 93.26
											 L23.49 81.93 A1.93352 1.94317 -180 0 0 24.12 81.3 L24.32 81.26 C24.3 81.18 24.28 81.1
											 24.25 81.03 A1.94943 1.95916 -180 0 0 24.21 79.2 Z" class="st3"/>
							</g>
						</g>
						<g id="group19153-16" transform="translate(9.15442,-15.5387)">
							<title>Sheet.19153</title>
							<g id="shape19154-17">
								<title>Sheet.19154</title>
								<path d="M19.86 84.84 A4.90672 4.93121 -180 1 0 24.78 89.78 A4.90672 4.93121 -180 0 0 19.86 84.84
											 ZM3.46 74.85 A4.90672 4.93121 -180 1 0 8.38 79.79 A4.90672 4.93121 -180 0 0 3.46 74.85
											 Z" class="st4"/>
							</g>
						</g>
					</g>
					<g id="group19155-21" transform="translate(31.581,1.42109E-14)">
						<title>Sheet.19155</title>
						<g id="group19156-22">
							<title>Sheet.19156</title>
							<g id="shape19157-23">
								<title>Sheet.19157</title>
								<path d="M25.11 85.38 C25.11 85.8 25.1 86.24 25.07 86.7 C25.03 87.16 24.98 87.63 24.89 88.09 C24.81
											 88.55 24.71 89.01 24.59 89.45 C24.47 89.9 24.31 90.33 24.13 90.71 C24 91.01 23.83 91.3
											 23.65 91.6 C23.47 91.92 23.26 92.18 23.01 92.43 C22.75 92.68 22.48 92.88 22.19 93.02
											 C21.91 93.17 21.58 93.25 21.19 93.26 L16.88 93.26 L16.88 93.23 C16.73 93.25 16.6 93.26
											 16.48 93.26 C16.22 93.26 15.98 93.22 15.74 93.14 C15.52 93.06 15.31 92.94 15.11 92.78
											 C14.91 92.62 14.73 92.45 14.54 92.27 C14.36 92.1 14.22 91.89 14.09 91.68 L11.05 91.68
											 C10.91 91.89 10.76 92.1 10.6 92.29 C10.43 92.48 10.24 92.64 10.03 92.78 C9.82 92.92
											 9.6 93.04 9.38 93.13 C9.16 93.22 8.91 93.26 8.63 93.26 L3.92 93.26 C3.55 93.26 3.22
											 93.18 2.93 93.04 C2.64 92.89 2.36 92.69 2.11 92.43 C1.86 92.17 1.64 91.91 1.46 91.6
											 C1.28 91.31 1.13 91.01 0.98 90.71 C0.8 90.32 0.65 89.89 0.52 89.45 C0.4 89.01 0.31 88.56
											 0.23 88.1 C0.16 87.64 0.1 87.17 0.07 86.7 C0.02 86.24 0 85.79 0 85.38 C0 84.94 0.01
											 84.5 0.04 84.04 C0.08 83.59 0.13 83.12 0.22 82.66 C0.3 82.2 0.4 81.75 0.52 81.29 C0.65
											 80.84 0.8 80.42 0.98 80.04 C1.11 79.73 1.27 79.44 1.46 79.14 C1.65 78.83 1.86 78.56
											 2.11 78.31 C2.35 78.07 2.63 77.86 2.92 77.72 C3.21 77.57 3.54 77.49 3.92 77.48 L8.63
											 77.48 C8.89 77.48 9.14 77.53 9.37 77.61 C9.6 77.69 9.82 77.81 10.03 77.95 C10.24 78.1
											 10.43 78.27 10.58 78.46 C10.74 78.65 10.9 78.85 11.05 79.06 L14.09 79.06 C14.22 78.86
											 14.37 78.66 14.54 78.47 C14.72 78.28 14.9 78.11 15.1 77.97 C15.3 77.82 15.51 77.71 15.74
											 77.62 C15.99 77.54 16.23 77.49 16.48 77.48 L21.19 77.48 C21.56 77.48 21.89 77.56 22.18
											 77.71 C22.48 77.85 22.75 78.05 23.01 78.31 C23.26 78.57 23.47 78.84 23.64 79.14 C23.82
											 79.43 23.98 79.73 24.13 80.04 C24.31 80.43 24.47 80.85 24.59 81.29 C24.71 81.74 24.81
											 82.19 24.88 82.65 C24.96 83.1 25.01 83.57 25.06 84.04 C25.09 84.5 25.11 84.95 25.11
											 85.38 ZM3.92 91.68 C4.1 91.68 4.26 91.63 4.41 91.51 C4.57 91.39 4.71 91.26 4.85 91.08
											 C4.98 90.91 5.09 90.73 5.19 90.55 C5.28 90.37 5.37 90.2 5.44 90.07 C5.59 89.72 5.72
											 89.35 5.83 88.97 C5.93 88.58 6.02 88.19 6.08 87.77 C6.15 87.36 6.19 86.96 6.23 86.54
											 C6.26 86.13 6.28 85.75 6.28 85.38 C6.28 85.01 6.26 84.62 6.24 84.2 C6.22 83.79 6.17
											 83.38 6.09 82.98 C6.02 82.58 5.93 82.18 5.83 81.78 C5.72 81.39 5.59 81.02 5.44 80.67
											 C5.37 80.54 5.3 80.38 5.2 80.2 C5.1 80.03 4.98 79.85 4.85 79.68 C4.7 79.51 4.56 79.36
											 4.41 79.24 C4.27 79.13 4.1 79.07 3.92 79.06 C3.75 79.06 3.59 79.12 3.43 79.23 C3.28
											 79.35 3.13 79.49 3.01 79.67 C2.87 79.84 2.76 80.01 2.66 80.19 C2.56 80.37 2.48 80.54
											 2.42 80.67 C2.26 81.02 2.13 81.39 2.03 81.77 C1.92 82.16 1.83 82.56 1.77 82.97 C1.7
											 83.38 1.65 83.79 1.62 84.2 C1.58 84.62 1.57 85.01 1.57 85.38 C1.57 85.75 1.58 86.13
											 1.6 86.54 C1.63 86.96 1.68 87.36 1.75 87.76 C1.83 88.17 1.92 88.57 2.03 88.96 C2.13
											 89.35 2.26 89.72 2.42 90.07 C2.47 90.2 2.55 90.36 2.65 90.54 C2.75 90.72 2.86 90.9 3.01
											 91.07 C3.14 91.23 3.29 91.38 3.43 91.5 C3.58 91.61 3.74 91.67 3.92 91.68 ZM10.99 85.38
											 C10.99 85.01 10.97 84.62 10.95 84.2 C10.93 83.79 10.87 83.38 10.81 82.98 C10.73 82.58
											 10.64 82.18 10.54 81.78 C10.43 81.39 10.29 81.02 10.14 80.67 C10.08 80.54 10 80.38 9.9
											 80.2 C9.82 80.03 9.69 79.85 9.55 79.68 C9.41 79.51 9.27 79.36 9.12 79.24 C8.98 79.13
											 8.81 79.07 8.63 79.06 L6.34 79.06 C6.62 79.5 6.85 79.97 7.05 80.5 C7.25 81.01 7.4 81.55
											 7.52 82.1 C7.63 82.65 7.71 83.21 7.77 83.77 C7.81 84.34 7.84 84.87 7.84 85.38 C7.84
											 85.88 7.82 86.42 7.78 86.98 C7.72 87.54 7.64 88.09 7.52 88.64 C7.4 89.18 7.24 89.72
											 7.05 90.25 C6.86 90.77 6.63 91.26 6.34 91.68 L8.63 91.68 C8.8 91.68 8.97 91.63 9.12
											 91.51 C9.28 91.39 9.43 91.26 9.55 91.08 C9.68 90.91 9.79 90.73 9.89 90.55 C9.99 90.37
											 10.07 90.2 10.14 90.07 C10.29 89.72 10.43 89.35 10.54 88.97 C10.64 88.58 10.73 88.19
											 10.8 87.77 C10.86 87.36 10.91 86.96 10.94 86.54 C10.97 86.13 10.99 85.75 10.99 85.38
											 ZM16.48 91.68 C16.66 91.68 16.81 91.63 16.97 91.51 C17.12 91.39 17.27 91.26 17.4 91.08
											 C17.54 90.91 17.65 90.73 17.75 90.55 C17.85 90.37 17.93 90.2 17.99 90.07 C18.15 89.72
											 18.27 89.35 18.38 88.97 C18.49 88.58 18.57 88.19 18.64 87.77 C18.71 87.36 18.75 86.96
											 18.78 86.54 C18.82 86.13 18.84 85.75 18.84 85.38 C18.84 85.01 18.83 84.62 18.79 84.2
											 C18.77 83.79 18.73 83.38 18.65 82.98 C18.58 82.58 18.49 82.18 18.38 81.78 C18.27 81.39
											 18.15 81.02 17.99 80.67 C17.94 80.54 17.86 80.38 17.76 80.2 C17.66 80.03 17.54 79.85
											 17.4 79.68 C17.26 79.51 17.12 79.36 16.97 79.24 C16.82 79.13 16.67 79.07 16.48 79.06
											 C16.32 79.06 16.17 79.12 16.02 79.23 C15.86 79.35 15.73 79.49 15.6 79.66 C15.46 79.81
											 15.35 79.99 15.25 80.18 C15.15 80.37 15.07 80.53 15 80.64 L11.81 80.64 C12.07 81.39
											 12.26 82.16 12.38 82.97 C12.49 83.78 12.54 84.57 12.56 85.38 C12.56 86.17 12.5 86.97
											 12.39 87.77 C12.27 88.58 12.08 89.35 11.81 90.1 L15 90.1 C15.06 90.23 15.14 90.38 15.24
											 90.56 C15.34 90.74 15.45 90.91 15.59 91.08 C15.72 91.24 15.85 91.39 16 91.51 C16.15
											 91.64 16.31 91.69 16.48 91.68 ZM23.54 85.38 C23.54 85.01 23.53 84.62 23.51 84.2 C23.49
											 83.79 23.43 83.38 23.36 82.98 C23.28 82.58 23.2 82.18 23.1 81.78 C22.98 81.39 22.85
											 81.02 22.69 80.67 C22.64 80.54 22.56 80.38 22.47 80.2 C22.37 80.03 22.25 79.85 22.11
											 79.68 C21.97 79.51 21.83 79.36 21.68 79.24 C21.54 79.13 21.37 79.07 21.19 79.06 L18.9
											 79.06 C19.17 79.5 19.41 79.97 19.61 80.5 C19.81 81.01 19.96 81.55 20.08 82.1 C20.19
											 82.65 20.28 83.21 20.32 83.77 C20.37 84.34 20.4 84.87 20.41 85.38 C20.41 85.88 20.38
											 86.42 20.33 86.98 C20.29 87.54 20.2 88.09 20.08 88.64 C19.95 89.18 19.8 89.72 19.61
											 90.25 C19.42 90.77 19.18 91.26 18.9 91.68 L21.19 91.68 C21.36 91.68 21.52 91.63 21.68
											 91.51 C21.84 91.39 21.98 91.26 22.11 91.08 C22.24 90.91 22.36 90.73 22.45 90.55 C22.55
											 90.37 22.64 90.2 22.69 90.07 C22.85 89.72 22.98 89.35 23.1 88.97 C23.2 88.58 23.28 88.19
											 23.35 87.77 C23.42 87.36 23.46 86.96 23.5 86.54 C23.53 86.13 23.54 85.75 23.54 85.38
											 Z" class="st5"/>
							</g>
						</g>
					</g>
				</g>
			</g>
		</g>
	</g>
</svg>
